to circle :x repeat 360 [ forward :x right 1 ] end
penup
forward 172
right 90
pendown
circle 3
penup
right 180
pendown
circle 1
penup
forward 172
left 135
pendown
forward 72
penup
forward 344
pendown
forward 72
penup
right 135
forward 344
right 135
pendown
forward 72
penup
forward 344
pendown
forward 72
penup
right 180
forward 244
right 135

